libs/ui/packages/crypto-icons/src/svg/TGCH.svg

<svg width="24" height="24" viewBox="0 0 24 24" fill="none">
<path d="M12.0002 3.06641C9.63084 3.06641 7.35854 4.00762 5.68316 5.683C4.00778 7.35838 3.06656 9.63069 3.06656 12C3.06656 14.3694 4.00778 16.6417 5.68316 18.3171C7.35854 19.9924 9.63084 20.9337 12.0002 20.9337C16.9344 20.9337 20.9334 16.9339 20.9334 11.9997C20.9334 7.06616 16.9352 3.06641 12.0002 3.06641ZM12.0002 20.5722C7.26168 20.5722 3.42018 16.7307 3.42018 11.9922C3.42018 7.25516 7.26243 3.41366 12.0002 3.41366C16.7379 3.41366 20.5802 7.25516 20.5802 11.9937C20.5802 16.7314 16.7387 20.5729 12.0002 20.5729" fill="#434247"/>
<path d="M12.9813 12.8779H15.2463V16.2199C15.2463 16.5514 14.9065 16.7284 14.5825 16.8986C14.2653 17.0681 13.7485 17.0314 12.8778 17.0314H11.8158C10.1853 17.0681 9.72779 16.9429 9.33704 16.7726C8.94629 16.5956 8.74679 16.3451 8.74679 16.0204V12.8779H7.57379V16.4186C7.57379 16.6106 7.66979 16.8319 7.81754 17.0314C7.98704 17.2601 7.96529 17.3261 8.33354 17.5106C8.66579 17.6801 8.99804 17.8129 9.59504 17.8871C10.06 17.9456 9.97904 17.9314 10.8055 17.9456H12.7675C14.2428 17.9164 14.545 18.0199 15.4225 17.5774C16.1388 17.2226 16.3825 16.8101 16.4335 16.5439V11.7274H12.9888V12.8779H12.9813ZM9.92729 6.06113C9.32954 6.09863 8.83529 6.28312 8.45204 6.43012C8.06129 6.57787 7.97954 6.75488 7.81754 6.94688C7.66754 7.12088 7.58354 7.34363 7.58129 7.57388V11.4986H8.76179V7.94888C8.76179 7.64663 8.94629 7.40363 9.30779 7.22663C9.67679 7.04213 10.2153 6.95362 10.717 6.95362H13.018C13.8955 6.95362 14.368 6.93863 14.641 7.10063C14.9215 7.27763 15.2538 7.43288 15.2538 7.76513V8.70188H16.4335V7.44113C16.4118 7.27838 16.2348 6.81413 15.4008 6.42263C14.6485 6.06863 14.4055 6.04688 13.225 6.04688" fill="#434247"/>
</svg>

<svg width="24" height="24" viewBox="0 0 24 24" fill="none"><path fill="#434247" d="M12 3.066a8.934 8.934 0 1 0 0 17.868 8.934 8.934 0 0 0 0-17.868m0 17.506a8.58 8.58 0 1 1 8.58-8.578A8.58 8.58 0 0 1 12 20.573"/><path fill="#434247" d="M12.981 12.878h2.265v3.342c0 .331-.34.508-.664.679-.317.17-.834.132-1.704.132h-1.062c-1.63.037-2.088-.088-2.479-.258-.39-.177-.59-.428-.59-.753v-3.142H7.574v3.54c0 .193.096.414.244.613.169.23.147.295.516.48.332.17.664.302 1.261.376.465.059.384.044 1.21.059h1.963c1.475-.03 1.777.074 2.654-.369.717-.354.96-.767 1.011-1.033v-4.817H12.99v1.15zM9.927 6.06c-.597.038-1.092.222-1.475.37-.39.147-.472.324-.634.516a.98.98 0 0 0-.237.627v3.925h1.18v-3.55q.002-.455.547-.722c.369-.185.907-.273 1.409-.273h2.301c.877 0 1.35-.015 1.623.147.28.177.613.332.613.664v.937h1.18v-1.26c-.022-.164-.2-.628-1.033-1.02-.752-.353-.995-.375-2.176-.375"/></svg>
